Origami/16x16/apps/photofilmstrip.svg

<svg width="16" height="16" version="1" xmlns="http://www.w3.org/2000/svg">
 <rect transform="matrix(0,-1,-1,0,0,0)" x="-16" y="-16" width="16" height="16" rx=".8" ry=".8" style="fill:#4f4f4f"/>
 <path d="m15 1h-2v2h2zm0 12h-2v2h2zm-4-12h-2v2h2zm0 12h-2v2h2zm-4-12h-2v2h2zm0 12h-2v2h2zm-4-12h-2v2h2zm0 12h-2v2h2z" style="fill:#ffffff"/>
 <path d="m 7.0000204,7.9999581 c -0.592,0.956 -1.903,1.284 -2.928,0.732 C 3.3842925,8.3609567 2.9998362,7.6911892 3,7 3.0000804,6.66093 3,6 3,5.9999581 L 7,7 Z" style="fill:#beff4c"/>
 <path d="m5.0097656 6.5019531c-5.913e-4 0.5834096 0.3200812 1.5501624 0.9941406 2.234375 0.00789-8.715e-4 0.023437-0.00195 0.023438-0.00195-0.3423982-0.4862961-0.2624427-1.4029407-0.0175786-1.982425z" style="fill:#2c2c2c"/>
 <path d="m8.9999996 7.9999581c0.592 0.956 1.9030004 1.284 2.9280004 0.732 0.687727-0.3710014 1.072184-1.0407689 1.07202-1.7319581-8e-5 -0.33907 0-1 0-1.0000419l-4 1.0000419z" style="fill:#beff4c"/>
 <path d="m10.990254 6.5019531c5.92e-4 0.5834096-0.320081 1.5501624-0.9941402 2.234375-0.00789-8.715e-4 -0.023437-0.00195-0.023438-0.00195 0.3423982-0.4862961 0.2624422-1.4029407 0.017579-1.982425z" style="fill:#2c2c2c"/>
</svg>

<svg xmlns="http://www.w3.org/2000/svg" width="16" height="16" version="1">
 <rect style="fill:#4f4f4f" width="16" height="16" x="-16" y="-16" rx=".8" ry=".8" transform="matrix(0,-1,-1,0,0,0)"/>
 <path style="fill:#ffffff" d="m 15,1 h -2 v 2 h 2 z m 0,12 h -2 v 2 h 2 z M 11,1 H 9 v 2 h 2 z m 0,12 H 9 v 2 h 2 z M 7,1 H 5 V 3 H 7 Z M 7,13 H 5 v 2 H 7 Z M 3,1 H 1 V 3 H 3 Z M 3,13 H 1 v 2 h 2 z"/>
 <path style="fill:#beff4c" d="m 7.0000204,7.9999581 c -0.592,0.956 -1.903,1.284 -2.928,0.732 C 3.3842925,8.3609567 2.9998362,7.6911892 3,7 3.0000804,6.66093 3,6 3,5.9999581 L 7,7 Z"/>
 <path style="fill:#2c2c2c" d="m 5.0097656,6.5019531 c -5.913e-4,0.5834096 0.3200812,1.5501624 0.9941406,2.234375 0.00789,-8.715e-4 0.023437,-0.00195 0.023438,-0.00195 C 5.684946,8.248082 5.7649015,7.3314374 6.0097656,6.7519531 Z"/>
 <path style="fill:#beff4c" d="m 8.9999996,7.9999581 c 0.592,0.956 1.9030004,1.284 2.9280004,0.732 C 12.615727,8.3609567 13.000184,7.6911892 13.00002,7 c -8e-5,-0.33907 0,-1 0,-1.0000419 L 9.00002,7 Z"/>
 <path style="fill:#2c2c2c" d="m 10.990254,6.5019531 c 5.92e-4,0.5834096 -0.320081,1.5501624 -0.9941402,2.234375 -0.00789,-8.715e-4 -0.023437,-0.00195 -0.023438,-0.00195 0.3423982,-0.4862961 0.2624422,-1.4029407 0.017579,-1.982425 z"/>
</svg>
